images/icons/telegram.svg

<svg width="32" height="28" viewBox="0 0 32 28" fill="none" xmlns="http://www.w3.org/2000/svg">
<path d="M0.810606 13.2707L8.09358 15.9864L10.9327 25.121C11.0561 25.7382 11.7968 25.8616 12.2905 25.4913L16.364 22.1584C16.7343 21.7881 17.3516 21.7881 17.8453 22.1584L25.1283 27.4663C25.622 27.8366 26.3627 27.5898 26.4861 26.9726L31.9174 1.05021C32.0409 0.43301 31.4237 -0.184183 30.8065 0.0626967L0.810606 11.666C0.0699673 11.9129 0.0699673 13.0239 0.810606 13.2707ZM10.5624 14.6286L24.8814 5.86436C25.1282 5.74092 25.3751 6.11124 25.1283 6.23468L13.4015 17.2208C13.0312 17.5911 12.6608 18.0849 12.6608 18.7021L12.2905 21.6647C12.2905 22.035 11.6733 22.1584 11.5499 21.6647L10.0686 16.2333C9.69827 15.6161 9.94518 14.8755 10.5624 14.6286Z" fill="white"/>
</svg>

<svg width="32" height="28" fill="none" xmlns="http://www.w3.org/2000/svg"><path d="m.81 13.27 7.284 2.716 2.839 9.135c.123.617.864.74 1.357.37l4.074-3.333c.37-.37.988-.37 1.481 0l7.283 5.308c.494.37 1.235.124 1.358-.493L31.917 1.05c.124-.617-.493-1.234-1.11-.987L.81 11.666c-.741.247-.741 1.358 0 1.605Zm9.752 1.359 14.32-8.765c.246-.123.493.247.246.37L13.402 17.222c-.37.37-.741.864-.741 1.481l-.37 2.963c0 .37-.618.493-.741 0l-1.481-5.432c-.37-.617-.124-1.357.493-1.604Z" fill="#fff"/></svg>
